!!!!SEGMENT: pl-sa--l-1643--019_anonim--quia-quem-meruisti-portare.krn
!!!cenid: 16xx:1374
!!!COM: Anonim
!!!COM-rismID: pe30004985
!!!CDT:
!!!CNT:
!!!OTL: Quia quem meruisti portare
!!!PDT:
!!!AGN: Sacred
!!!YEC: Copyright 2022 Narodowy Instytut Fryderyka Chopina (https://polishscores.org)
!!!YEM: License CC-BY-4.0 (https://creativecommons.org/licenses/by/4.0)
!!!SMS-siglum: PL-SA
!!!SMS-shelfmark: L 1643
!!!SMS-shelfwork: 019 W
!!!SMS-variant:
!!!SMS-altvar:
!!!NIFC-rismSourceID: 1001064677
!!!NIFC-rismChildID: 1001064677
!!!NIFC-islandoraID:
!!!URL-pdf-islandora:
!!!URL-scan:
!!!IIIF:
!!!ONB-nifc: UWAGA: 8 ksiąg. Primi chori: 1mus Cantus (x), C 2dus (41-42), C 3tius (x), Bassus (x); Secondi chori: Primus Cantus (x), C 2dus (x), Altus (47-48), Bassus (103-104). UWAGA: metrum 2/2 i 3/2. Nie dodawać pustych linii, chyba że w rękopisie pojawiają się dodatkowe oznaczenia dotyczące pełnej obsady (a 4, a 8 itp.)
!!!AIN: 3 empty
!!!key:
**kern	**text	**kern	**text	**kern	**text
*group1	*	*group1	*	*group1	*
*part3	*	*part2	*	*part1	*
*staff3	*	*staff2	*	*staff1	*
*Iempty	*	*Iempty	*	*Iempty	*
*I"Baſsus 2di Chori.	*	*I"Altus secundi Chori.	*	*I"Cantus 2dus Primi Chori	*
*I'[Coro 2 B]	*	*I'[Coro 2 A]	*	*I'[Coro 1 C 1]	*
*clefC3	*	*clefC2	*	*clefC1	*
*k[]	*	*k[]	*	*k[]	*
*G:	*	*G:	*	*G:	*
*M2/2	*	*M2/2	*	*M2/2	*
*met(C|)	*	*met(C|)	*	*met(C|)	*
=1-	=1-	=1-	=1-	=1-	=1-
1G	Qui-	1g	Qui-	1b	Qui-
=2-	=2-	=2-	=2-	=2-	=2-
2G/	-a	2g\	-a	2b\	-a
2G/	quem	2d/	q(uem)	2b\	quem
=3-	=3-	=3-	=3-	=3-	=3-
2d\	me-	2d/	me-	2dd\	me-
2G/	-ru-	2d/	-ru-	2dd\	-ru-
=4-	=4-	=4-	=4-	=4-	=4-
1c	-i-	1g	-i-	1cc	-i-
=5-	=5-	=5-	=5-	=5-	=5-
2G/	-ſtij	2g\	-ſti	2b\	-ſti
2g\	por-	2g\	por-	2b\	por-
*	*	*custos:e	*	*	*
!	!	!LO:LB:g=original	!	!	!
=6-	=6-	=6-	=6-	=6-	=6-
4c/	-ta-	2e/	-ta-	1cc	-ta-
4d/	.	.	.	.	.
4e\	.	2c/	.	.	.
4f\	.	.	.	.	.
=7-	=7-	=7-	=7-	=7-	=7-
2g\	-re	2d/	-re	2b\	-re
2r	.	2r	.	2b\	por-
=8-	=8-	=8-	=8-	=8-	=8-
1r	.	1r	.	1a	-ta-
=9-	=9-	=9-	=9-	=9-	=9-
2r	.	2r	.	2b\	-re
2G/	por-	2g\	Por-	2r	.
=10-	=10-	=10-	=10-	=10-	=10-
!	!	!LO:TX:t=P:problem=# below	!	!	!
1d	-ta-	1f#X	-ta-	1r	.
=11-	=11-	=11-	=11-	=11-	=11-
2G/	-re	2g\	-re	2r	.
2r	.	2r	.	2dd\	qui-
=12-	=12-	=12-	=12-	=12-	=12-
00r	.	00r	.	2dd\	-a
.	.	.	.	2b\	quem
=13-	=13-	=13-	=13-	=13-	=13-
*	*	*	*	*lig	*
.	.	.	.	1cc	.
=14-	=14-	=14-	=14-	=14-	=14-
.	.	.	.	1b	me-
*	*	*	*	*Xlig	*
=15-	=15-	=15-	=15-	=15-	=15-
.	.	.	.	2a\	-r[u]-
.	.	.	.	2dd\	-i-
=16-	=16-	=16-	=16-	=16-	=16-
2r	.	2r	.	2dd\,<	-ſti
2g\	qui-	2g\	qui-	2b\	por-
*custos:c	*	*	*	*	*
!LO:LB:g=original	!	!	!	!	!
=17-	=17-	=17-	=17-	=17-	=17-
4c/	-a	2.e/	-a	1cc	-ta-
4d\	.	.	.	.	.
4e\	.	.	.	.	.
4f\	quem	4fny\	quem	.	.
=18-	=18-	=18-	=18-	=18-	=18-
2g\	me-	2g\	me-	1b	-re
2G/	-ru-	2g\	-ru-	.	.
*	*	*	*	*custos:cc	*
!	!	!	!	!LO:PB:g=original	!
=19-	=19-	=19-	=19-	=19-	=19-
2c/	-i-	1g	-i-	1r	.
2c/	-ſtij,	.	.	.	.
=20-	=20-	=20-	=20-	=20-	=20-
1F	.	1a	-ſti	1r	.
=21-	=21-	=21-	=21-	=21-	=21-
0r	.	0r	.	2.cc\	Qui-
.	.	.	.	4dd\	-a
=22-	=22-	=22-	=22-	=22-	=22-
.	.	.	.	2ee\,<	quem
.	.	.	.	2ee\,<	me-
=23-	=23-	=23-	=23-	=23-	=23-
2r	.	2r	.	2cc\	-ru-
2F/	por-	2a\	qui-	2cc\	-i-
=24-	=24-	=24-	=24-	=24-	=24-
1c	-ta-	2.e/	-a	1cc	-ſti
.	.	4f\	.	.	.
=25-	=25-	=25-	=25-	=25-	=25-
2G/,<	-re	2g\	quem	2b\,<	por-
*	*	*custos:g	*	*	*
!	!	!LO:LB:g=original	!	!	!
2g\	por-	2g\	me-	2dd\	-ta-
=26-	=26-	=26-	=26-	=26-	=26-
1d	-ta-	2a\	-ru-	1a	.
.	.	2d/	-i-	.	.
=27-	=27-	=27-	=27-	=27-	=27-
1g	-re	2d/	-ſti	2.b\	.
.	.	1g\	Por-	.	.
.	.	.	.	4cc\	.
=28-	=28-	=28-	=28-	=28-	=28-
1G	por-	.	.	0dd,<	-re
.	.	2d/	-ta-	.	.
=29-	=29-	=29-	=29-	=29-	=29-
0d	-ta-	2d/	-re	.	.
.	.	2d/	por-	.	.
=30-	=30-	=30-	=30-	=30-	=30-
!	!	!LO:TX:t=P:problem=nuta zamazana	!	!	!
.	.	1d	-ta-	2dd\	por-
.	.	.	.	2a\	-ta-
=31-	=31-	=31-	=31-	=31-	=31-
0G;>	-re,	0d;>	-re,	0b;>	-re?
=32-||	=32-||	=32-||	=32-||	=32-||	=32-||
!LO:TX:t=P:problem=dwukreska pseudotaktowa	!	!	!	!LO:TX:t=P:problem=dwukreska pseudotaktowa	!
*M3/2	*	*M3/2	*	*M3/2	*
0.r	.	0.r	.	1cc	Al-
.	.	.	.	1cc\	-le-
=33-	=33-	=33-	=33-	=33-	=33-
.	.	.	.	1cc	-lu-
=34-	=34-	=34-	=34-	=34-	=34-
!	!	!LO:TX:t=P:problem=# below	!	!	!
1d	Al-	1f#X	Al-	0a	-ia
!	!	!LO:TX:t=P:problem=# below	!	!	!
1d\	-le-	1f#X\	-l(e-	.	.
=35-	=35-	=35-	=35-	=35-	=35-
!	!	!LO:TX:t=P:problem=# below	!	!	!
1d	-lu-	1f#X	-lu-	1r	.
=36-	=36-	=36-	=36-	=36-	=36-
0G	-ia	0g	-i)a	1dd	Al-
.	.	.	.	1dd\	-le-
*	*	*	*	*custos:dd	*
!	!	!	!	!LO:LB:g=original	!
=37-	=37-	=37-	=37-	=37-	=37-
!	!	!LO:TX:t=P:problem=niewyraźne źródło	!	!	!
1r	.	1ryy	.	1dd	-lu-
=38-	=38-	=38-	=38-	=38-	=38-
0d	Al-	0f	Al-	0dd	-ia
=39-	=39-	=39-	=39-	=39-	=39-
*custos:d	*	*	*	*	*
!LO:LB:g=original	!	!	!	!	!
1d,<	-le-	1f	-l(e-	1r	.
=40-	=40-	=40-	=40-	=40-	=40-
0d,<	-lu-	0f	-lu-	0.r	.
=41-	=41-	=41-	=41-	=41-	=41-
0G,<	-ia	0g	-i)a	.	.
=42-	=42-	=42-	=42-	=42-	=42-
.	.	.	.	1b	Al-
1ryy	.	1ryy	.	1b\	-le-
=43-	=43-	=43-	=43-	=43-	=43-
.	.	.	.	.	.
1r	.	1r	.	1b	-lu-
=44-	=44-	=44-	=44-	=44-	=44-
0c	Al-	0g	a-	0cc	-ia
*	*	*custos:g	*	*	*
!	!	!LO:LB:g=original	!	!	!
=45-	=45-	=45-	=45-	=45-	=45-
1c,<	-le-	1g	-le-	1r	.
=46-	=46-	=46-	=46-	=46-	=46-
0.c,<	-lu-	0.g	-lu-	0.r	.
=47-	=47-	=47-	=47-	=47-	=47-
0ryy	.	1g	-ia	0dd	Al-
=48-	=48-	=48-	=48-	=48-	=48-
.	.	1r	.	.	.
1G	-ia	1r	-ia	1ee	-le-
.	.	.	.	.	.
2ryy	.	2ryy	.	2ryy	.
=49-	=49-	=49-	=49-	=49-	=49-
1.r	.	00.r	.	0cc	-lu-
=50-	=50-	=50-	=50-	=50-	=50-
1.r	.	.	.	.	.
.	.	.	.	1dd	-ia
=51-	=51-	=51-	=51-	=51-	=51-
0.r	.	.	.	0b	Al-
=52-	=52-	=52-	=52-	=52-	=52-
.	.	.	.	1cc	-le-
=53-	=53-	=53-	=53-	=53-	=53-
*M2/2	*	*M2/2	*	*M2/2	*
*met(C|)	*	*met(C|)	*	*met(C|)	*
2ryy	.	2a\	Al-	2a\	-lu-
2d\	Al-	2d/	-l(e-	2dd\,<	-ia
=54-	=54-	=54-	=54-	=54-	=54-
2d\	-le-	1d	-lu-	4dd\	Al-
.	.	.	.	4cc\	-le-
2d\	-lu-	.	.	2a\	-lu-
=55-	=55-	=55-	=55-	=55-	=55-
0g;;	-ia,	0d;;	-i)a	0b;;	-ia?
=56-||	=56-||	=56-||	=56-||	=56-||	=56-||
!LO:TX:t=P:problem=dwukreska pseudotaktowa	!	!	!	!	!
*M2/2	*	*	*	*	*
*met(C|)	*	*	*	*	*
2ryy	.	2r	.	2.b\	O-
2G/	O-	2d/	O-	.	.
.	.	.	.	4cc\	.
=57-	=57-	=57-	=57-	=57-	=57-
2G/	-ra	2d/	-ra	2dd\	-ra
2G/	pro	2d/	pro	2b\	pro
=58-	=58-	=58-	=58-	=58-	=58-
1d	no-	1.d	no-	1a	.
=59-	=59-	=59-	=59-	=59-	=59-
1G,<	-bis	.	.	1b	no-
.	.	2g\	-bis	.	.
=60-	=60-	=60-	=60-	=60-	=60-
4c/	de-	1f	de-	1cc	-bis
4d/	-um	.	.	.	.
4e\	o-	.	.	.	.
4f\	.	.	.	.	.
=61-	=61-	=61-	=61-	=61-	=61-
2g\	-ra	2g\	-um	2b\,<	de-
*custos:G	*	*	*	*	*
!LO:PB:g=original	!	!	!	!	!
2G/	O-	2d/	o-	2b\	-um
=62-	=62-	=62-	=62-	=62-	=62-
2d\	-ra	2d/	-ra	2dd\	O-
*	*	*custos:d	*	*	*
!	!	!LO:PB:g=original	!	!	!
2d\	pro	2d/	Pro	2a\	-ra
=63-	=63-	=63-	=63-	=63-	=63-
2G/	no-	2d/	no-	2b\	pro
2G/	-bis	2d/	-bis	2b\	no-
=64-	=64-	=64-	=64-	=64-	=64-
*	*	*lig	*	*	*
0d	De-	1a	De-	0a	-bis
=65-	=65-	=65-	=65-	=65-	=65-
.	.	1d	.	.	.
*	*	*Xlig	*	*	*
=66-	=66-	=66-	=66-	=66-	=66-
2g\	-um	2d/	-um	2b\,<	de-
2g\	o-	2g\	.	2b\	-um
=67-	=67-	=67-	=67-	=67-	=67-
2c/	-ra	2g\	O-	2cc\	O-
2c/	pro	2e/	-ra	2cc\	-ra
=68-	=68-	=68-	=68-	=68-	=68-
2c/	no-	2e/	pro	2cc\	pro
2G/	-bis	2g\	no-	2dd\,<	no-
=69-	=69-	=69-	=69-	=69-	=69-
1c	De-	2g\	-bis	2.cc\	-bis
.	.	2e/	de-	.	.
.	.	.	.	8b\L	de-
.	.	.	.	8a\J	.
=70-	=70-	=70-	=70-	=70-	=70-
0G;;	-um	0g;;	-um	0b;;	-um?
=-||	=-||	=-||	=-||	=-	=-
*-	*-	*-	*-	*-	*-
!!!system-decoration: [(s1)][(s2,s3)]
!!!RDF**kern: > = above
!!!RDF**kern: < = below
!!!ENC: Anastazja Marusiak
!!!END: 2021-10-04
!!!EED: Jędrzej Mróz
!!!ESR: 2021-10-08
